X: 9
T: Banish Misfortune
Z: TJ
S: https://thesession.org/tunes/9#setting46380
R: jig
M: 6/8
L: 1/8
K: Dmix
|:fed cAG|A2d cAG|~F3 DED|~F3 ~G3|
~A3 cAG|~A3 B/c/de|fed cAG|Ad^c d2e:|
|:f2d d^cd|fdf agf|e2c cBc|ece gfe|
f2g agf|e2f gfe|fed cAG|Ad^c d2e:|
|:f2g e2f|d2e c2d|~A3 ~G3|~F3 GED|
~c3 cAG|~A3 B/c/de|fed cAG|Ad^c d2e:|

